X:1
T:Georgie
F:http://www.folkinfo.org/songs
B:Ozark Folk Songs, Randolph, Ed Norm Cohen, ISBN 0-252-00952-2
Z:Vance Randolph, 28D
S:Georgia Dunaway, Fayetteville, Arkansas, Jan 30, 1942
M:4/4     
L:1/8     
K:Edor
A2 |B2 d2 e2 f2 |e2 d2 A2 A2 |B2 d2 e2 f2 |
w:As I went o-ver Lond-don's Bridge, 'Twas ear-ly in the 
(e2d2) B2 z2 |Hd2 e2 d2 A2 |BB B2 D4 |FF AA B2 F2 |
w:morn_ ing There I spied a pret-ty fair maid Plead-ing for the life of 
E4 E2 z2 |]
w:Geor-gie